X: 2
T: the Arkansaw Traveller
T: the Arkansas Traveller
%: I'm Bringing Home A Baby Bumblebee
M: 4/4
L: 1/8
R: reel
K: D
A,2 |\
"D"DFED "G"B,2B,2 | "A7"A,2A,2 "D"D4 |1,3 "A7"E2E2 "D"F2F2 | "D"DFED "G"B,2"A7"A,2 \
                                    :|2,4 "D"dcdA "G"BdAG | "A7"FDEC "D"D2 :|
|: fg |\
"D"agfa "G"gfeg | "D"fedf "A7"edcA |1,3 "D"dcdf "G"edeg | "D"fedf "A7"e2fg \
                                  :|2,4 "D"dcdA "B"BdAG | "A7"FDEC "D"D2 :|

%%sep 1 1 500

